X: 1
T: Pharoh, The
C: Trad
R: An Dro
L: 1/8
M: 4/4
K: Em
Z: ABC transcription by Verge Roller
r: 32
|: "Em" E2 B2 B2 Bc | "Am" A2 AB "Em" G4 | "D" FGAF "Em" G2 E2 | "C" EDEF "D" G2 F2 |
"Em" E2  B2 B2 Bc | "Am" A2 AB "Em" G4 | "D" FGAF "Em" G2 E2 | "C" GE"D"FD "Em" E4 :|
|: "D" FGAF "Em" G2 E2 | "C" EDEF "D" G2 F2 | "D" FGAF "Em" G2 E2 | "D" EFGA "Em" B4 |
"D" FGAF "Em" G2 E2 | "C" EDEF "D" G2 F2 | "D" FGAF "Em" G2 E2 | "C" GE"D"FD "Em" E4 :|
